static/assets/images/logos/monochrome/dim3.svg

<svg height="88" width="132" xmlns="http://www.w3.org/2000/svg"><g fill="none"><path d="M3.377 24.195c2.91-.327 5.847-.152 8.769-.115 6.596.268 13.183.975 19.652 2.31 3.153.704 6.283 1.554 9.274 2.783 3.139 1.368 5.82 3.65 7.896 6.35 2.845 3.803 4.69 8.407 4.994 13.16.127 2.15-.102 4.346-.907 6.358-1.115 3.014-2.85 6.006-5.66 7.726-2.797 1.656-6.246 1.406-9.278.627-1.2-.304-2.376-.704-3.492-1.244-5.59-2.95-10.606-6.857-15.35-11.005-6.43-5.71-12.35-12.03-17.372-19.018C1.17 30.984.085 29.93.022 28.49c-.226-2.011 1.327-4.054 3.355-4.296zm13.013 9.274c-.08.886.655 1.504 1.085 2.19.333.412.597 1.049 1.207 1.068 3.093.182 6.19.282 9.284.452.968.046 1.827.886 1.883 1.858.116 1.1-.79 2.225-1.93 2.21-2.018-.026-4.033-.25-6.053-.25.813 1.17 1.897 2.127 2.86 3.17.32.284.586.753 1.067.743 3.085.146 6.175.246 9.26.398 1.252.058 2.194 1.44 1.78 2.626-.264.83-1.127 1.404-1.99 1.392-1.444.002-2.887-.206-4.331-.136.396.563.99.93 1.535 1.338 1.714 1.168 3.422 2.445 5.462 2.983 1.893.594 4.127.727 5.83-.45 1.48-1.037 2.46-2.648 3.143-4.293.986-2.28.76-4.873.14-7.218-.333-1.084-.643-2.208-1.288-3.154-.784-.756-1.458-1.627-2.342-2.273-.94-.771-2.065-1.273-3.222-1.62a59.52 59.52 0 0 0-9.183-2.27c-3.99-.666-8.035-1.093-12.086-.96-1.128.044-2.105 1.069-2.11 2.196z" fill="#000000"/><path d="M66.845 32.797c2.56.002 5.12-.003 7.682.002 3.483-.06 7.167 1.527 8.896 4.666 1.368 2.374 1.68 5.26 1.137 7.92-.534 2.597-2.148 4.995-4.47 6.316a11.203 11.203 0 0 1-5.362 1.38c-2.63.015-5.256.003-7.883.007zm3.769 2.982v14.28c1.304-.006 2.608.008 3.91-.006 1.465-.027 2.98-.388 4.129-1.335 1.45-1.18 2.132-3.062 2.276-4.877.149-1.987-.148-4.118-1.365-5.755-1.034-1.48-2.86-2.273-4.636-2.307-1.44-.002-2.877 0-4.314 0zm39.004 2.6c1.709-.335 3.698.233 4.7 1.723.807 1.06 1.007 2.435 1.026 3.733.002 3.035 0 6.072 0 9.109h-3.48c0-3.037.004-6.074 0-9.113-.013-.756-.112-1.588-.657-2.163-.963-.997-2.788-.906-3.651.175-.466.554-.622 1.298-.618 2.006-.002 3.033 0 6.064-.002 9.095h-3.48v-9.072c-.012-.831-.093-1.78-.74-2.381-.894-.714-2.257-.675-3.165.002-.446.352-1.101.74-.982 1.405.004 3.349 0 6.697.002 10.046h-3.397v-14.33c.82.03 1.652-.072 2.465.065.676.229.553 1.104.718 1.66 1.13-1.447 3.045-2.33 4.877-1.88 1.24.316 2.057 1.416 2.54 2.535.676-1.507 2.227-2.461 3.844-2.615zM87.8 53.039V38.616h3.48V53.04zm1.049-20.688c1.417-.546 3.143.748 2.916 2.277-.093 1.524-2.007 2.48-3.286 1.656-1.623-.74-1.335-3.494.37-3.933z" fill="#000000"/><path d="M118.7 36.26a666.244 666.244 0 0 1 0-3.463h12.135c-.002.983 0 1.964-.002 2.947-1.543 1.692-3.043 3.42-4.588 5.11 1.48.15 3.003.656 4.012 1.802 1.125 1.104 1.635 2.724 1.487 4.28.017 2.086-.988 4.21-2.802 5.308-2.032 1.383-4.642 1.54-6.995 1.086-1.628-.31-3.101-1.106-4.49-1.975.534-1.04 1.075-2.077 1.612-3.116 1.473.999 3.176 1.778 4.988 1.8 1.148.053 2.4-.161 3.278-.957.988-.943 1.075-2.668.203-3.714a3.235 3.235 0 0 0-1.466-1.016 7.735 7.735 0 0 0-4.763-.057c-.002-.981 0-1.96-.002-2.94l4.39-5.096z" fill="#000000"/><path d="M93.606 56.92c-.43-.224-.47-.6-.214-.99.18.15.63.12.597.44.09.266-.262.368-.383.55zm-26.133-.516c.714-.423 1.58-.08 2.265.242l-.312.535c-.538-.25-1.741-.59-1.74.336.468.616 1.464.445 1.975 1.04.37.499.252 1.347-.345 1.622-.834.435-1.832.142-2.523-.425.13-.163.264-.327.399-.488.494.305 1.08.64 1.679.43.37-.082.399-.68.064-.827-.592-.311-1.387-.263-1.828-.827-.33-.523-.214-1.338.366-1.638zm14.82-.287h.622v4.23l-.636-.001.04-.357c-.546.513-1.453.556-2.016.05-.818-.712-.593-2.227.413-2.652.55-.218 1.124.046 1.585.348-.01-.54-.012-1.079-.008-1.618zm-1.356 1.81c-.697.354-.668 1.504.07 1.796.595.38 1.29-.25 1.244-.877.092-.692-.692-1.26-1.314-.92zm13.984-1.798l.628.01c-.004 1.41-.004 2.82 0 4.229-.158.002-.47.002-.626.002.002-1.414.006-2.828-.002-4.241zm4.224.182c.399-.413 1.002-.234 1.448-.013l-.248.415c-.26-.036-.553-.18-.782.016-.078.18-.145.364-.2.552.289.02.577.038.868.054l-.005.513h-.786v2.5h-.62c-.002-.832-.002-1.665-.002-2.5-.09.002-.274.002-.366.002-.004-.13-.016-.385-.02-.514l.34-.02c.082-.343.036-.785.373-1.005zm19.552-.177l.624-.005c.002 1.413-.011 2.827.008 4.24a69.21 69.21 0 0 0-.64.008c.02-1.413.006-2.83.008-4.243zm5.385-.017h.622c0 .566.004 1.133-.013 1.7.412-.461 1.119-.756 1.69-.386 1.078.502 1.004 2.273-.04 2.779-.548.352-1.172-.02-1.654-.304.006.146.014.294.023.442h-.628zm.99 1.87c-.562.43-.481 1.479.195 1.759.66.347 1.4-.436 1.25-1.1-.068-.644-.913-1.054-1.445-.658zm6.3-1.847c.156-.004.47-.011.626-.013-.004 1.41-.01 2.825.002 4.239l-.632.013c.01-1.413.002-2.827.004-4.24zm-43.82.266l.623-.002c-.002.304-.002.61 0 .913l.79.004-.006.529c-.25-.002-.495-.002-.742-.002.073.642-.202 1.412.2 1.97.26-.018.519-.074.779-.118.283.664-.678.78-1.09.568-.865-.502-.467-1.65-.55-2.462l-.375-.01c-.002-.12-.002-.354-.002-.471l.376-.012c-.002-.302-.002-.605-.002-.907zM70.5 59.069c-.225-1.163 1.102-2.127 2.154-1.633.71.249.855 1.045.845 1.705-.807.013-1.614-.012-2.42.026.292.824 1.334.89 1.925.34l.283.453c-.87.87-2.712.434-2.787-.89zm.572-.48c.63.04 1.262.038 1.894.005-.141-.26-.232-.602-.56-.677-.554-.242-1.155.139-1.334.673zm3.394-.754c.564-.654 1.718-.71 2.29-.037.35.356.289.89.346 1.346-.81.008-1.621-.011-2.43.022.21.3.416.688.838.694.41.098.766-.162 1.11-.34l.29.47c-.611.426-1.475.605-2.13.17-.798-.45-.905-1.668-.314-2.325zm.177.767a23.9 23.9 0 0 0 1.893-.004c-.148-.365-.396-.756-.845-.742-.51-.073-.888.306-1.048.746zm9.626-.98c.616-.457 1.599-.41 2.088.213.317.357.256.865.312 1.306-.81.013-1.618-.01-2.425.025.289.825 1.315.87 1.922.373l.33.438c-.596.435-1.45.616-2.108.208-.934-.48-.972-1.99-.12-2.564zm-.015.978c.206-.97 1.683-.98 1.9-.01-.633.037-1.27.035-1.9.01zm5.643-.921c.69-.485 1.943-.708 2.369.217.19.8.054 1.637.092 2.452-.21 0-.418 0-.624.002l.025-.315c-.476.329-1.125.538-1.658.213-.547-.26-.613-1.198-.05-1.471.549-.25 1.17-.192 1.758-.235-.088-.873-1.07-.777-1.64-.45zm.43 1.925c-.22-.856.926-.633 1.43-.646.089.754-.951 1.163-1.43.646zm2.94-2.285h.624c0 1.01-.002 2.018 0 3.027l-.622.004c-.002-1.01 0-2.021-.002-3.03zm7.663 0l.636.002-.052.54c.305-.259.65-.465 1.023-.611-.006.154-.02.46-.025.613-.27.122-.628.16-.765.458-.335.62-.148 1.358-.195 2.027h-.622zm2.957.08c.863-.401 2.057.099 2.226 1.074.272 1.012-.693 2.166-1.756 1.898-.765-.03-1.375-.767-1.35-1.515-.047-.612.348-1.185.88-1.456zm.189.563c-.657.36-.624 1.41.04 1.734.603.41 1.466-.134 1.452-.832.104-.754-.888-1.276-1.492-.902zm2.86-.645c.158.002.475.004.635.004l-.044.546c.43-.715 1.489-.82 1.972-.096.555-.567 1.656-.748 2.1.043.358.786.113 1.696.182 2.534h-.622c-.02-.684.066-1.38-.073-2.056-.23-.638-1.365-.455-1.431.199-.062.632-.017 1.269-.025 1.905h-.624c-.021-.702.065-1.415-.062-2.11-.21-.515-1.013-.42-1.277-.01-.132.68-.048 1.38-.065 2.072h-.666zm8.418.175c.57-.332 1.263-.123 1.718.306-.01-.12-.03-.358-.042-.477l.676-.002c-.024 1.027.05 2.058-.04 3.083-.063.739-.806 1.24-1.51 1.204-.46.033-.868-.202-1.272-.373l.27-.504c.462.167 1.017.47 1.488.158.41-.214.364-.731.467-1.112-.48.32-1.102.689-1.67.352-.965-.513-1.004-2.056-.085-2.635zm.437.404c-.58.373-.58 1.335.043 1.666.496.346 1.25-.1 1.246-.695.13-.67-.676-1.352-1.29-.97zm5.235-.492c1.069-.543 2.508.43 2.25 1.65-.118 1.14-1.511 1.73-2.443 1.096-.988-.621-.874-2.27.193-2.746zm.189.563c-.653.362-.613 1.406.05 1.73.6.405 1.462-.135 1.45-.831.106-.756-.896-1.283-1.5-.9zm6.787-.292c.67-.44 1.79-.7 2.305.094.306.814.09 1.722.156 2.572l-.608.019-.012-.33c-.458.343-1.1.536-1.626.224-.57-.254-.631-1.244-.03-1.49.547-.227 1.15-.185 1.73-.222-.084-.87-1.072-.78-1.638-.45zm.375 1.8c.043-.767.992-.463 1.495-.513.096.779-1.156 1.229-1.495.513z" fill="#000000"/></g></svg>

<?xml version="1.0" encoding="UTF-8" standalone="no"?>
<!DOCTYPE svg PUBLIC "-//W3C//DTD SVG 1.1//EN" "http://www.w3.org/Graphics/SVG/1.1/DTD/svg11.dtd">
<svg viewBox="0 0 132 40" version="1.1" xmlns="http://www.w3.org/2000/svg" xmlns:xlink="http://www.w3.org/1999/xlink" xml:space="preserve" xmlns:serif="http://www.serif.com/" style="fill-rule:evenodd;clip-rule:evenodd;stroke-linejoin:round;stroke-miterlimit:2;">
    <g transform="matrix(1,0,0,1,-0.000120689,-24.0001)">
        <g>
            <path d="M3.377,24.195C6.287,23.868 9.224,24.043 12.146,24.08C18.742,24.348 25.329,25.055 31.798,26.39C34.951,27.094 38.081,27.944 41.072,29.173C44.211,30.541 46.892,32.823 48.968,35.523C51.813,39.326 53.658,43.93 53.962,48.683C54.089,50.833 53.86,53.029 53.055,55.041C51.94,58.055 50.205,61.047 47.395,62.767C44.598,64.423 41.149,64.173 38.117,63.394C36.917,63.09 35.741,62.69 34.625,62.15C29.035,59.2 24.019,55.293 19.275,51.145C12.845,45.435 6.925,39.115 1.903,32.127C1.17,30.984 0.085,29.93 0.022,28.49C-0.204,26.479 1.349,24.436 3.377,24.194L3.377,24.195ZM16.39,33.469C16.31,34.355 17.045,34.973 17.475,35.659C17.808,36.071 18.072,36.708 18.682,36.727C21.775,36.909 24.872,37.009 27.966,37.179C28.934,37.225 29.793,38.065 29.849,39.037C29.965,40.137 29.059,41.262 27.919,41.247C25.901,41.221 23.886,40.997 21.866,40.997C22.679,42.167 23.763,43.124 24.726,44.167C25.046,44.451 25.312,44.92 25.793,44.91C28.878,45.056 31.968,45.156 35.053,45.308C36.305,45.366 37.247,46.748 36.833,47.934C36.569,48.764 35.706,49.338 34.843,49.326C33.399,49.328 31.956,49.12 30.512,49.19C30.908,49.753 31.502,50.12 32.047,50.528C33.761,51.696 35.469,52.973 37.509,53.511C39.402,54.105 41.636,54.238 43.339,53.061C44.819,52.024 45.799,50.413 46.482,48.768C47.468,46.488 47.242,43.895 46.622,41.55C46.289,40.466 45.979,39.342 45.334,38.396C44.55,37.64 43.876,36.769 42.992,36.123C42.052,35.352 40.927,34.85 39.77,34.503C36.774,33.504 33.703,32.745 30.587,32.233C26.597,31.567 22.552,31.14 18.501,31.273C17.373,31.317 16.396,32.342 16.391,33.469L16.39,33.469Z" style="fill-rule:nonzero;"/>
            <path d="M66.845,32.797C69.405,32.799 71.965,32.794 74.527,32.799C78.01,32.739 81.694,34.326 83.423,37.465C84.791,39.839 85.103,42.725 84.56,45.385C84.026,47.982 82.412,50.38 80.09,51.701C78.446,52.602 76.603,53.077 74.728,53.081C72.098,53.096 69.472,53.084 66.845,53.088L66.845,32.797ZM70.614,35.779L70.614,50.059C71.918,50.053 73.222,50.067 74.524,50.053C75.989,50.026 77.504,49.665 78.653,48.718C80.103,47.538 80.785,45.656 80.929,43.841C81.078,41.854 80.781,39.723 79.564,38.086C78.53,36.606 76.704,35.813 74.928,35.779C73.488,35.777 72.051,35.779 70.614,35.779ZM109.618,38.379C111.327,38.044 113.316,38.612 114.318,40.102C115.125,41.162 115.325,42.537 115.344,43.835C115.346,46.87 115.344,49.907 115.344,52.944L111.864,52.944C111.864,49.907 111.868,46.87 111.864,43.831C111.851,43.075 111.752,42.243 111.207,41.668C110.244,40.671 108.419,40.762 107.556,41.843C107.09,42.397 106.934,43.141 106.938,43.849C106.936,46.882 106.938,49.913 106.936,52.944L103.456,52.944L103.456,43.872C103.444,43.041 103.363,42.092 102.716,41.491C101.822,40.777 100.459,40.816 99.551,41.493C99.105,41.845 98.45,42.233 98.569,42.898C98.573,46.247 98.569,49.595 98.571,52.944L95.174,52.944L95.174,38.614C95.994,38.644 96.826,38.542 97.639,38.679C98.315,38.908 98.192,39.783 98.357,40.339C99.487,38.892 101.402,38.009 103.234,38.459C104.474,38.775 105.291,39.875 105.774,40.994C106.45,39.487 108.001,38.533 109.618,38.379ZM87.8,53.039L87.8,38.616L91.28,38.616L91.28,53.04L87.8,53.039ZM88.849,32.351C90.266,31.805 91.992,33.099 91.765,34.628C91.672,36.152 89.758,37.108 88.479,36.284C86.856,35.544 87.144,32.79 88.849,32.351Z" style="fill-rule:nonzero;"/>
            <path d="M118.7,36.26C118.697,35.106 118.697,33.951 118.7,32.797L130.835,32.797C130.833,33.78 130.835,34.761 130.833,35.744C129.29,37.436 127.79,39.164 126.245,40.854C127.725,41.004 129.248,41.51 130.257,42.656C131.382,43.76 131.892,45.38 131.744,46.936C131.761,49.022 130.756,51.146 128.942,52.244C126.91,53.627 124.3,53.784 121.947,53.33C120.319,53.02 118.846,52.224 117.457,51.355C117.991,50.315 118.532,49.278 119.069,48.239C120.542,49.238 122.245,50.017 124.057,50.039C125.205,50.092 126.457,49.878 127.335,49.082C128.323,48.139 128.41,46.414 127.538,45.368C127.154,44.899 126.646,44.547 126.072,44.352C124.53,43.833 122.863,43.813 121.309,44.295C121.307,43.314 121.309,42.335 121.307,41.355L125.697,36.259L118.7,36.26Z" style="fill-rule:nonzero;"/>
            <path d="M93.606,56.92C93.176,56.696 93.136,56.32 93.392,55.93C93.572,56.08 94.022,56.05 93.989,56.37C94.079,56.636 93.727,56.738 93.606,56.92ZM67.473,56.404C68.187,55.981 69.053,56.324 69.738,56.646L69.426,57.181C68.888,56.931 67.685,56.591 67.686,57.517C68.154,58.133 69.15,57.962 69.661,58.557C70.031,59.056 69.913,59.904 69.316,60.179C68.482,60.614 67.484,60.321 66.793,59.754C66.923,59.591 67.057,59.427 67.192,59.266C67.686,59.571 68.272,59.906 68.871,59.696C69.241,59.614 69.27,59.016 68.935,58.869C68.343,58.558 67.548,58.606 67.107,58.042C66.777,57.519 66.893,56.704 67.473,56.404ZM82.293,56.117L82.915,56.117L82.915,60.347L82.279,60.346L82.319,59.989C81.773,60.502 80.866,60.545 80.303,60.039C79.485,59.327 79.71,57.812 80.716,57.387C81.266,57.169 81.84,57.433 82.301,57.735C82.291,57.195 82.289,56.656 82.293,56.117ZM80.937,57.927C80.24,58.281 80.269,59.431 81.007,59.723C81.602,60.103 82.297,59.473 82.251,58.846C82.343,58.154 81.559,57.586 80.937,57.926L80.937,57.927ZM94.921,56.129L95.549,56.139C95.545,57.549 95.545,58.959 95.549,60.368C95.391,60.37 95.079,60.37 94.923,60.37C94.925,58.956 94.929,57.542 94.921,56.129ZM99.145,56.311C99.544,55.898 100.147,56.077 100.593,56.298L100.345,56.713C100.085,56.677 99.792,56.533 99.563,56.729C99.485,56.909 99.418,57.093 99.363,57.281C99.652,57.301 99.94,57.319 100.231,57.335L100.226,57.848L99.44,57.848L99.44,60.348L98.82,60.348C98.818,59.516 98.818,58.683 98.818,57.848C98.728,57.85 98.544,57.85 98.452,57.85C98.448,57.72 98.436,57.465 98.432,57.336L98.772,57.316C98.854,56.973 98.808,56.531 99.145,56.311ZM118.697,56.134L119.321,56.129C119.323,57.542 119.31,58.956 119.329,60.369C119.116,60.371 118.902,60.373 118.689,60.377C118.709,58.964 118.695,57.547 118.697,56.134ZM124.082,56.117L124.704,56.117C124.704,56.683 124.708,57.25 124.691,57.817C125.103,57.356 125.81,57.061 126.381,57.431C127.459,57.933 127.385,59.704 126.341,60.21C125.793,60.562 125.169,60.19 124.687,59.906C124.693,60.052 124.701,60.2 124.71,60.348L124.082,60.348L124.082,56.117ZM125.072,57.987C124.51,58.417 124.591,59.466 125.267,59.746C125.927,60.093 126.667,59.31 126.517,58.646C126.449,58.002 125.604,57.592 125.072,57.988L125.072,57.987ZM131.372,56.14C131.528,56.136 131.842,56.129 131.998,56.127C131.994,57.537 131.988,58.952 132,60.366L131.368,60.379C131.378,58.966 131.37,57.552 131.372,56.139L131.372,56.14ZM87.552,56.406L88.175,56.404C88.173,56.708 88.173,57.014 88.175,57.317L88.965,57.321L88.959,57.85C88.709,57.848 88.464,57.848 88.217,57.848C88.29,58.49 88.015,59.26 88.417,59.818C88.677,59.8 88.936,59.744 89.196,59.7C89.479,60.364 88.518,60.48 88.106,60.268C87.241,59.766 87.639,58.618 87.556,57.806L87.181,57.796C87.179,57.676 87.179,57.442 87.179,57.325L87.555,57.313C87.553,57.011 87.553,56.708 87.553,56.406L87.552,56.406ZM70.5,59.069C70.275,57.906 71.602,56.942 72.654,57.436C73.364,57.685 73.509,58.481 73.499,59.141C72.692,59.154 71.885,59.129 71.079,59.167C71.371,59.991 72.413,60.057 73.004,59.507L73.287,59.96C72.417,60.83 70.575,60.394 70.5,59.07L70.5,59.069ZM71.072,58.589C71.702,58.629 72.334,58.627 72.966,58.594C72.825,58.334 72.734,57.992 72.406,57.917C71.852,57.675 71.251,58.056 71.072,58.59L71.072,58.589ZM74.466,57.835C75.03,57.181 76.184,57.125 76.756,57.798C77.106,58.154 77.045,58.688 77.102,59.144C76.292,59.152 75.481,59.133 74.672,59.166C74.882,59.466 75.088,59.854 75.51,59.86C75.92,59.958 76.276,59.698 76.62,59.52L76.91,59.99C76.299,60.416 75.435,60.595 74.78,60.16C73.982,59.71 73.875,58.492 74.466,57.835ZM74.643,58.602C75.274,58.626 75.905,58.624 76.536,58.598C76.388,58.233 76.14,57.842 75.691,57.856C75.181,57.783 74.803,58.162 74.643,58.602ZM84.269,57.622C84.885,57.165 85.868,57.212 86.357,57.835C86.674,58.192 86.613,58.7 86.669,59.141C85.859,59.154 85.051,59.131 84.244,59.166C84.533,59.991 85.559,60.036 86.166,59.539L86.496,59.977C85.9,60.412 85.046,60.593 84.388,60.185C83.454,59.705 83.416,58.195 84.268,57.621L84.269,57.622ZM84.254,58.6C84.46,57.63 85.937,57.62 86.154,58.59C85.521,58.627 84.884,58.625 84.254,58.6ZM89.897,57.679C90.587,57.194 91.84,56.971 92.266,57.896C92.456,58.696 92.32,59.533 92.358,60.348C92.148,60.348 91.94,60.348 91.734,60.35L91.759,60.035C91.283,60.364 90.634,60.573 90.101,60.248C89.554,59.988 89.488,59.05 90.051,58.777C90.6,58.527 91.221,58.585 91.809,58.542C91.721,57.669 90.739,57.765 90.169,58.092L89.897,57.679ZM90.327,59.604C90.107,58.748 91.253,58.971 91.757,58.958C91.846,59.712 90.806,60.121 90.327,59.604ZM93.267,57.319L93.891,57.319C93.891,58.329 93.889,59.337 93.891,60.346L93.269,60.35C93.267,59.34 93.269,58.329 93.267,57.32L93.267,57.319ZM100.93,57.319L101.566,57.321L101.514,57.861C101.819,57.602 102.164,57.396 102.537,57.25C102.531,57.404 102.517,57.71 102.512,57.863C102.242,57.985 101.884,58.023 101.747,58.321C101.412,58.941 101.599,59.679 101.552,60.348L100.93,60.348L100.93,57.319ZM103.887,57.399C104.75,56.998 105.944,57.498 106.113,58.473C106.385,59.485 105.42,60.639 104.357,60.371C103.592,60.341 102.982,59.604 103.007,58.856C102.96,58.244 103.355,57.671 103.887,57.4L103.887,57.399ZM104.076,57.962C103.419,58.322 103.452,59.372 104.116,59.696C104.719,60.106 105.582,59.562 105.568,58.864C105.672,58.11 104.68,57.588 104.076,57.962ZM106.936,57.317C107.094,57.319 107.411,57.321 107.571,57.321L107.527,57.867C107.957,57.152 109.016,57.047 109.499,57.771C110.054,57.204 111.155,57.023 111.599,57.814C111.957,58.6 111.712,59.51 111.781,60.348L111.159,60.348C111.139,59.664 111.225,58.968 111.086,58.292C110.856,57.654 109.721,57.837 109.655,58.491C109.593,59.123 109.638,59.76 109.63,60.396L109.006,60.396C108.985,59.694 109.071,58.981 108.944,58.286C108.734,57.771 107.931,57.866 107.667,58.276C107.535,58.956 107.619,59.656 107.602,60.348L106.936,60.348L106.936,57.317ZM115.354,57.492C115.924,57.16 116.617,57.369 117.072,57.798C117.062,57.678 117.042,57.44 117.03,57.321L117.706,57.319C117.682,58.346 117.756,59.377 117.666,60.402C117.603,61.141 116.86,61.642 116.156,61.606C115.696,61.639 115.288,61.404 114.884,61.233L115.154,60.729C115.616,60.896 116.171,61.199 116.642,60.887C117.052,60.673 117.006,60.156 117.109,59.775C116.629,60.095 116.007,60.464 115.439,60.127C114.474,59.614 114.435,58.071 115.354,57.492ZM115.791,57.896C115.211,58.269 115.211,59.231 115.834,59.562C116.33,59.908 117.084,59.462 117.08,58.867C117.21,58.197 116.404,57.515 115.79,57.897L115.791,57.896ZM121.026,57.404C122.095,56.861 123.534,57.834 123.276,59.054C123.158,60.194 121.765,60.784 120.833,60.15C119.845,59.529 119.959,57.88 121.026,57.404ZM121.215,57.967C120.562,58.329 120.602,59.373 121.265,59.697C121.865,60.102 122.727,59.562 122.715,58.866C122.821,58.11 121.819,57.583 121.215,57.966L121.215,57.967ZM128.002,57.675C128.672,57.235 129.792,56.975 130.307,57.769C130.613,58.583 130.397,59.491 130.463,60.341L129.855,60.36L129.843,60.03C129.385,60.373 128.743,60.566 128.217,60.254C127.647,60 127.586,59.01 128.187,58.764C128.734,58.537 129.337,58.579 129.917,58.542C129.833,57.672 128.845,57.762 128.279,58.092L128.002,57.675ZM128.377,59.475C128.42,58.708 129.369,59.012 129.872,58.962C129.968,59.741 128.716,60.191 128.377,59.475Z" style="fill-rule:nonzero;"/>
        </g>
    </g>
</svg>
